_inc/systems/logos/auto-casino.svg

<?xml version="1.0" encoding="utf-8"?>
<svg version="1.1" id="casino" x="0px" y="0px" style="enable-background:new 0 0 500 500;" viewBox="0 0 200 40" xmlns="http://www.w3.org/2000/svg">
  <path d="M 50.082 4.651 C 50.303 4.498 50.47 4.377 50.65 4.27 C 51.098 3.99 51.579 3.904 52.107 4.01 C 55.448 4.685 58.795 5.339 62.143 6.021 C 63.948 6.389 65.745 6.776 67.542 7.15 C 67.75 7.197 67.957 7.251 68.163 7.305 C 69.286 7.619 69.808 8.433 69.58 9.596 C 69.126 11.975 68.652 14.347 68.177 16.726 C 67.522 20.014 66.861 23.301 66.213 26.589 C 66.172 26.796 66.172 27.01 66.146 27.297 C 66.573 27.537 67.015 27.771 67.448 28.026 C 67.957 28.319 68.465 28.613 68.952 28.941 C 69.373 29.221 69.594 29.622 69.6 30.157 C 69.614 32.482 69.654 34.801 69.681 37.126 C 69.681 37.287 69.661 37.447 69.647 37.607 C 69.54 38.824 69.206 38.89 68.291 39.051 C 66.721 39.331 65.13 39.519 63.547 39.732 C 62.939 39.813 62.317 39.833 61.722 39.953 C 61.221 40.053 60.767 39.993 60.332 39.773 C 58.956 39.071 57.593 38.349 56.216 37.634 C 55.708 37.374 55.488 36.946 55.475 36.398 C 55.461 35.756 55.468 35.121 55.468 34.346 C 55.181 34.5 55 34.581 54.847 34.687 C 54.212 35.135 53.597 35.603 52.955 36.037 C 52.535 36.325 52.087 36.485 51.538 36.464 C 50.336 36.424 49.133 36.478 47.931 36.485 C 47.69 36.485 47.449 36.478 47.209 36.464 C 46.608 36.438 46.166 36.211 45.866 35.643 C 45.131 34.253 44.342 32.897 43.581 31.52 C 43.467 31.313 43.34 31.119 43.22 30.918 C 42.077 31.272 40.988 31.613 39.892 31.941 C 39.177 32.162 38.502 32.101 37.981 31.52 C 37.76 31.272 37.594 30.945 37.48 30.631 C 36.484 27.798 35.489 24.959 34.527 22.112 C 33.076 17.828 31.653 13.539 30.216 9.249 C 30.03 8.694 29.855 8.133 29.709 7.565 C 29.481 6.67 29.835 5.848 30.651 5.4 C 30.925 5.247 31.239 5.146 31.539 5.046 C 36.417 3.415 41.295 1.799 46.166 0.161 C 46.748 -0.033 47.296 -0.079 47.87 0.174 C 48.485 0.449 48.806 0.95 49.02 1.537 C 49.361 2.553 49.702 3.563 50.082 4.651 Z M 49.635 8.013 C 49.594 7.886 49.547 7.731 49.494 7.585 C 48.906 5.874 48.325 4.164 47.736 2.453 C 47.597 2.052 47.463 1.638 46.969 1.444 C 46.774 1.504 46.547 1.571 46.321 1.651 C 43.593 2.56 40.861 3.456 38.134 4.377 C 36.043 5.086 33.958 5.821 31.873 6.549 C 31.553 6.663 31.192 6.749 31.119 7.197 C 31.185 7.404 31.259 7.632 31.332 7.859 C 33.35 13.939 35.368 20.02 37.393 26.101 C 37.82 27.384 38.262 28.667 38.723 29.943 C 38.923 30.505 39.123 30.618 39.692 30.451 C 40.607 30.184 41.503 29.869 42.438 29.569 C 42.251 29.135 42.091 28.774 41.97 28.486 C 42.097 27.778 42.571 27.45 43.006 27.103 C 43.821 26.455 44.656 25.834 45.472 25.192 C 45.826 24.912 46.153 24.625 46.254 24.13 C 46.895 21.002 47.55 17.875 48.211 14.755 C 48.686 12.51 49.16 10.271 49.635 8.013 Z M 51.76 5.413 C 51.305 5.581 51.191 5.908 51.118 6.249 C 50.904 7.211 50.69 8.173 50.49 9.135 C 49.588 13.572 48.693 18.009 47.797 22.439 C 47.731 22.78 47.69 23.134 47.603 23.648 C 48.265 23.114 48.812 22.733 49.514 22.733 C 51.258 22.733 53.009 22.56 54.82 22.813 C 54.679 22.626 54.573 22.479 54.466 22.332 C 53.771 21.417 53.109 20.482 52.802 19.352 C 52.594 18.597 52.521 17.808 52.795 17.066 C 53.49 15.216 55.896 14.848 57.165 16.365 C 57.319 16.546 57.452 16.746 57.613 16.96 C 57.833 16.833 58.034 16.705 58.248 16.599 C 59.183 16.111 60.326 16.232 61.094 16.9 C 61.963 17.648 62.224 18.624 61.87 19.713 C 61.622 20.468 61.155 21.083 60.579 21.604 C 59.297 22.767 57.8 23.562 56.203 24.177 C 56.01 24.016 55.835 23.869 55.669 23.729 C 55.642 23.755 55.609 23.775 55.582 23.802 C 56.216 24.945 56.844 26.094 57.492 27.257 C 58.402 27.116 59.236 26.99 60.065 26.863 C 59.925 25.319 61.108 25.005 62.036 24.444 C 62.711 24.965 63.105 25.62 63.393 26.369 C 63.821 26.369 64.235 26.369 64.629 26.369 C 64.675 26.275 64.709 26.235 64.722 26.188 C 65.271 23.529 65.818 20.868 66.36 18.209 C 66.921 15.443 67.468 12.677 68.017 9.91 C 68.077 9.603 68.091 9.289 68.13 8.928 C 67.836 8.814 67.603 8.688 67.356 8.627 C 66.079 8.34 64.803 8.066 63.527 7.805 C 59.597 7.011 55.682 6.215 51.76 5.413 Z M 61.382 31.012 C 61.054 33.725 61.442 36.385 61.288 39.037 C 62.204 39.184 67.87 38.416 68.759 38.022 C 68.792 37.708 68.865 37.367 68.865 37.026 C 68.878 34.915 68.878 32.803 68.885 30.698 C 68.885 30.431 68.878 30.157 68.571 29.99 C 66.186 30.264 63.787 30.551 61.382 31.012 Z M 54.58 23.755 C 52.461 25.279 50.43 26.642 48.565 28.192 C 49.173 29.77 51.993 34.874 52.542 35.375 C 53.497 34.68 54.459 33.973 55.434 33.264 C 55.434 31.514 55.434 29.81 55.434 28.039 C 55.802 27.798 56.169 27.551 56.597 27.27 C 55.936 26.127 55.281 24.985 54.58 23.755 Z M 43.501 27.691 C 44.944 27.691 46.213 27.712 47.483 27.678 C 47.724 27.671 47.978 27.504 48.184 27.351 C 49.769 26.221 51.345 25.078 52.916 23.936 C 53.049 23.836 53.17 23.715 53.383 23.529 C 52.087 23.529 50.917 23.542 49.748 23.522 C 49.294 23.515 48.926 23.662 48.572 23.923 C 47.53 24.704 46.474 25.473 45.425 26.255 C 44.824 26.696 44.236 27.143 43.501 27.691 Z M 67.723 29.281 C 67.723 29.221 67.73 29.161 67.73 29.095 C 66.774 28.58 65.805 28.079 64.863 27.531 C 64.295 27.203 63.707 27.183 63.085 27.27 C 62.03 27.423 60.974 27.557 59.918 27.712 C 59.063 27.831 58.214 27.965 57.192 28.112 C 57.445 28.279 57.539 28.353 57.646 28.413 C 58.461 28.86 59.29 29.295 60.099 29.77 C 60.64 30.09 61.188 30.137 61.789 30.043 C 62.444 29.943 63.112 29.869 63.767 29.783 C 65.09 29.615 66.406 29.449 67.723 29.281 Z M 56.777 30.384 C 56.257 30.932 56.324 31.293 56.965 31.66 C 57.339 31.086 57.312 30.852 56.777 30.384 Z M 59.51 32.996 C 59.938 32.395 59.878 32.048 59.324 31.727 C 58.855 32.242 58.882 32.476 59.51 32.996 Z M 44.275 29.783 C 44.189 29.963 44.055 30.11 44.082 30.217 C 44.189 30.611 44.449 30.885 44.85 30.999 C 45.211 30.471 45.137 30.304 44.275 29.783 Z M 58.301 34.628 C 58.615 33.919 58.588 33.819 58.014 33.384 C 57.533 33.953 57.6 34.267 58.301 34.628 Z M 56.757 35.101 C 56.263 35.63 56.317 35.937 56.958 36.351 C 57.359 35.796 57.306 35.482 56.757 35.101 Z M 50.283 34.807 C 50.229 34.346 49.995 34.079 49.635 33.959 C 49.514 33.919 49.341 34.032 49.18 34.086 C 49.554 34.968 49.621 35.008 50.283 34.807 Z M 59.678 37.594 C 59.844 37.133 59.884 36.706 59.364 36.372 C 59.05 36.558 58.916 36.798 59.05 37.153 C 59.149 37.434 59.25 37.715 59.678 37.594 Z" style="fill: rgb(204, 204, 204);"/>
  <path d="M 40.567 16.893 C 40.901 15.048 41.221 13.251 41.549 11.447 C 42.037 11.661 44.382 13.726 45.692 15.095 C 45.512 16.866 45.124 18.651 44.77 20.554 C 44.53 20.395 44.322 20.294 44.155 20.154 C 42.972 19.085 41.79 18.009 40.567 16.893 Z" style="fill: rgb(204, 204, 204);"/>
  <path d="M 35.509 11.293 C 35.762 11.514 35.923 11.641 36.076 11.782 C 36.311 11.995 36.538 12.208 36.771 12.43 C 36.658 12.95 36.551 13.432 36.417 14.026 C 35.963 13.625 35.576 13.291 35.208 12.964 C 35.215 12.757 35.208 12.623 35.235 12.497 C 35.308 12.142 35.402 11.782 35.509 11.293 Z" style="fill: rgb(204, 204, 204);"/>
  <path d="M 36.05 10.104 C 35.823 9.89 35.596 9.677 35.335 9.43 C 35.208 9.469 35.061 9.509 34.914 9.563 C 34.767 9.616 34.626 9.683 34.527 9.73 C 34.326 10.058 34.587 10.484 34.193 10.712 C 34.072 10.291 33.998 8.367 34.106 7.953 C 34.132 7.839 34.252 7.752 34.326 7.652 C 34.974 8.126 35.856 9.282 36.05 10.104 Z M 35.269 9.141 C 34.947 8.735 34.7 8.426 34.453 8.112 C 34.406 8.133 34.352 8.153 34.306 8.173 C 34.352 8.567 34.399 8.962 34.453 9.41 C 34.74 9.316 34.954 9.249 35.269 9.141 Z" style="fill: rgb(204, 204, 204);"/>
  <path d="M 52.962 11.788 C 53.129 11.735 53.276 11.668 53.43 11.647 C 53.757 11.601 54.078 11.621 54.279 11.935 C 54.492 12.262 54.573 12.623 54.352 12.984 C 53.964 13.632 53.356 13.999 52.675 14.241 C 52.528 14.293 52.26 14.167 52.12 14.04 C 51.706 13.659 51.405 13.198 51.238 12.65 C 51.078 12.116 51.185 11.714 51.559 11.454 C 51.893 11.22 52.287 11.267 52.722 11.594 C 52.809 11.654 52.889 11.728 52.962 11.788 Z" style="fill: rgb(204, 204, 204);"/>
  <path d="M 54.158 10.819 C 54.024 10.491 53.891 10.164 53.751 9.803 C 53.517 9.744 53.262 9.67 52.962 9.589 C 52.728 9.857 52.481 10.137 52.233 10.412 C 52.194 10.385 52.147 10.358 52.107 10.331 C 52.141 10.224 52.154 10.111 52.208 10.011 C 52.562 9.389 52.922 8.774 53.289 8.159 C 53.423 7.933 53.564 7.686 53.945 7.845 C 54.125 8.807 54.266 9.784 54.318 10.773 C 54.266 10.793 54.212 10.806 54.158 10.819 Z M 53.042 9.195 C 53.336 9.389 53.336 9.389 53.804 9.349 C 53.838 8.988 53.811 8.641 53.591 8.253 C 53.383 8.607 53.216 8.901 53.042 9.195 Z" style="fill: rgb(204, 204, 204);"/>
  <path d="M 62.985 36.719 C 63.54 36.872 63.707 37.153 63.64 37.587 C 63.6 37.848 63.486 38.075 63.219 38.096 C 63.038 38.109 62.818 38.002 62.664 37.894 C 62.444 37.735 62.417 37.467 62.538 37.246 C 62.637 37.046 62.832 36.892 62.985 36.719 Z" style="fill: rgb(204, 204, 204);"/>
  <path d="M 67.322 32.816 C 66.908 32.696 66.64 32.502 66.654 32.088 C 66.667 31.68 66.921 31.48 67.295 31.42 C 68.017 31.888 68.03 32.235 67.322 32.816 Z" style="fill: rgb(204, 204, 204);"/>
  <path d="M 65.204 33.979 C 65.946 34.514 65.919 34.935 65.143 35.388 C 64.789 35.322 64.603 35.095 64.582 34.74 C 64.556 34.339 64.789 34.113 65.204 33.979 Z" style="fill: rgb(204, 204, 204);"/>
  <path d="M 53.176 32.322 C 53.376 32.509 53.597 32.716 53.871 32.976 C 53.677 33.271 53.517 33.511 53.376 33.725 C 52.856 33.665 52.581 33.444 52.548 33.016 C 52.521 32.636 52.775 32.456 53.176 32.322 Z" style="fill: rgb(204, 204, 204);"/>
  <path d="M 50.296 28.319 C 50.563 28.279 50.811 28.165 50.977 28.232 C 51.165 28.313 51.338 28.533 51.419 28.734 C 51.545 29.034 51.379 29.355 51.118 29.456 C 50.857 29.548 50.53 29.422 50.376 29.154 C 50.336 29.088 50.303 29.008 50.296 28.934 C 50.283 28.787 50.296 28.627 50.296 28.319 Z" style="fill: rgb(204, 204, 204);"/>
  <path d="M 54.338 27.03 C 53.925 26.943 53.704 26.709 53.65 26.328 C 53.617 26.06 53.663 25.988 54.098 25.64 C 54.446 25.706 54.739 25.84 54.806 26.255 C 54.867 26.616 54.733 26.876 54.338 27.03 Z" style="fill: rgb(204, 204, 204);"/>
  <path d="M 47.998 25.894 C 48.198 25.486 48.532 25.326 49.067 25.239 C 48.76 25.746 48.399 25.854 47.998 25.894 Z" style="fill: rgb(204, 204, 204);"/>
  <path d="M 62.745 27.752 C 63.206 27.531 63.547 27.511 63.98 27.765 C 63.54 27.959 63.199 28.039 62.745 27.752 Z" style="fill: rgb(204, 204, 204);"/>
  <path d="M 60.62 27.999 C 61.114 27.791 61.469 27.838 61.843 27.898 C 61.522 28.266 61.482 28.266 60.62 27.999 Z" style="fill: rgb(204, 204, 204);"/>
  <path d="M 63.092 28.787 C 62.745 28.787 62.39 28.787 61.936 28.787 C 62.357 28.333 62.725 28.586 63.072 28.546 C 63.079 28.627 63.085 28.707 63.092 28.787 Z" style="fill: rgb(204, 204, 204);"/>
  <path d="M 59.805 28.954 C 60.312 28.754 60.666 28.761 61.128 28.941 C 60.673 29.228 60.319 29.188 59.805 28.954 Z" style="fill: rgb(204, 204, 204);"/>
  <path d="M 66.373 29.055 C 65.665 29.315 65.665 29.315 65.164 29.115 C 65.672 28.9 65.672 28.9 66.373 29.055 Z" style="fill: rgb(204, 204, 204);"/>
  <path d="M 62.303 29.582 C 61.803 29.823 61.482 29.856 61.074 29.562 C 61.482 29.375 61.816 29.382 62.303 29.582 Z" style="fill: rgb(204, 204, 204);"/>
  <path d="M 59.858 28.266 C 59.384 28.526 59.384 28.526 58.855 28.313 C 59.317 28.125 59.317 28.125 59.858 28.266 Z" style="fill: rgb(204, 204, 204);"/>
  <path d="M 65.117 28.499 C 64.756 28.499 64.402 28.499 63.994 28.499 C 64.462 28.159 64.462 28.159 65.117 28.499 Z" style="fill: rgb(204, 204, 204);"/>
  <path d="M 64.195 29.449 C 63.867 29.449 63.54 29.449 63.179 29.449 C 63.567 29.075 63.6 29.068 64.195 29.449 Z" style="fill: rgb(204, 204, 204);"/>
  <path d="M 86.12 25.951 L 85.64 30.991 C 84.36 31.511 82.74 31.771 80.78 31.771 C 78.26 31.771 76.455 31.281 75.365 30.301 C 74.275 29.321 73.73 27.811 73.73 25.771 C 73.73 24.911 73.87 23.641 74.15 21.961 C 74.75 18.521 75.785 16.021 77.255 14.461 C 78.725 12.901 81.05 12.121 84.23 12.121 C 84.97 12.121 85.815 12.196 86.765 12.346 C 87.715 12.496 88.41 12.681 88.85 12.901 L 87.17 17.491 C 85.99 17.211 84.885 17.071 83.855 17.071 C 82.825 17.071 82.09 17.171 81.65 17.371 C 81.21 17.571 80.94 17.971 80.84 18.571 L 79.46 26.431 C 80.18 26.591 80.92 26.671 81.68 26.671 C 83.3 26.671 84.78 26.431 86.12 25.951 Z M 92.48 31.321 L 86.48 31.321 L 94.37 12.571 L 103.19 12.571 L 104.51 31.321 L 98.48 31.321 L 98.36 28.351 L 93.65 28.351 Z M 97.61 18.331 L 95.51 23.581 L 97.91 23.581 L 97.91 18.331 Z M 105.95 30.991 L 107.63 26.041 C 109.31 26.501 110.85 26.731 112.25 26.731 C 113.65 26.731 114.78 26.671 115.64 26.551 L 115.88 25.051 L 113.39 24.811 C 111.49 24.631 110.145 24.201 109.355 23.521 C 108.565 22.841 108.17 21.881 108.17 20.641 C 108.17 20.101 108.23 19.501 108.35 18.841 C 108.81 16.281 109.645 14.521 110.855 13.561 C 112.065 12.601 113.94 12.121 116.48 12.121 C 119.02 12.121 121.26 12.371 123.2 12.871 L 121.64 17.671 C 119.9 17.371 118.5 17.221 117.44 17.221 C 116.38 17.221 115.48 17.271 114.74 17.371 L 114.5 18.841 L 116.51 19.051 C 118.55 19.271 120 19.756 120.86 20.506 C 121.72 21.256 122.15 22.261 122.15 23.521 C 122.15 24.801 121.87 26.121 121.31 27.481 C 121.03 28.181 120.725 28.766 120.395 29.236 C 120.065 29.706 119.645 30.106 119.135 30.436 C 118.625 30.766 118.16 31.016 117.74 31.186 C 117.32 31.356 116.79 31.481 116.15 31.561 C 115.21 31.701 114.06 31.771 112.7 31.771 C 110.22 31.771 107.97 31.511 105.95 30.991 Z M 123.499 31.321 L 126.799 12.571 L 132.499 12.571 L 129.199 31.321 Z M 143.209 31.321 L 140.149 24.661 C 140.069 24.521 140.029 24.326 140.029 24.076 C 140.029 23.826 140.049 23.541 140.089 23.221 L 139.849 23.221 L 138.439 31.321 L 132.739 31.321 L 136.039 12.571 L 141.409 12.571 L 144.469 19.231 C 144.529 19.371 144.559 19.566 144.559 19.816 C 144.559 20.066 144.539 20.351 144.499 20.671 L 144.739 20.671 L 146.179 12.571 L 151.879 12.571 L 148.579 31.321 Z M 159.859 18.841 L 158.479 26.641 L 160.849 26.641 C 161.629 26.641 162.209 26.546 162.589 26.356 C 162.969 26.166 163.219 25.731 163.339 25.051 L 164.719 17.251 L 162.319 17.251 C 161.559 17.251 160.989 17.346 160.609 17.536 C 160.229 17.726 159.979 18.161 159.859 18.841 Z M 163.309 12.121 C 165.849 12.121 167.659 12.616 168.739 13.606 C 169.819 14.596 170.359 16.121 170.359 18.181 C 170.359 20.241 170.034 22.396 169.384 24.646 C 168.734 26.896 167.704 28.646 166.294 29.896 C 164.884 31.146 162.824 31.771 160.114 31.771 C 157.404 31.771 155.509 31.276 154.429 30.286 C 153.349 29.296 152.809 27.771 152.809 25.711 C 152.809 24.731 152.949 23.436 153.229 21.826 C 153.509 20.216 153.879 18.826 154.339 17.656 C 154.799 16.486 155.419 15.471 156.199 14.611 C 157.699 12.951 160.069 12.121 163.309 12.121 Z" style="fill: rgb(255, 255, 255); white-space: pre;"/>
</svg>

<svg xmlns="http://www.w3.org/2000/svg" viewBox="0 0 200 40"><path d="m50.08 4.65.57-.38q.67-.42 1.46-.26l10.03 2.01 5.4 1.13.62.15c1.13.32 1.65 1.13 1.42 2.3l-1.4 7.13-1.97 9.86q-.05.29-.06.7l1.3.74a25 25 0 0 1 1.5.91q.63.41.65 1.22l.08 6.97-.03.48c-.11 1.21-.44 1.28-1.36 1.44-1.57.28-3.16.47-4.74.68-.61.08-1.23.1-1.83.22q-.74.15-1.39-.18l-4.11-2.14q-.74-.4-.74-1.23c-.02-.64-.01-1.28-.01-2.05-.29.15-.47.23-.62.34l-1.9 1.35c-.42.29-.86.45-1.41.42-1.2-.04-2.4.02-3.6.02q-.38 0-.73-.02a1.4 1.4 0 0 1-1.34-.82q-1.13-2.07-2.29-4.12l-.36-.6-3.33 1.02c-.71.22-1.39.16-1.9-.42a3 3 0 0 1-.51-.89q-1.51-4.25-2.95-8.52-2.17-6.42-4.31-12.86-.28-.84-.51-1.68c-.23-.9.13-1.72.94-2.17q.43-.21.89-.35L46.17.16c.58-.2 1.13-.24 1.7.01.62.28.94.78 1.15 1.37zm-.45 3.36q-.05-.2-.14-.42l-1.75-5.14c-.14-.4-.28-.81-.77-1q-.3.08-.65.2-4.1 1.35-8.19 2.73Q35 5.44 31.87 6.55c-.32.11-.68.2-.75.65l.21.66L37.4 26.1q.64 1.93 1.33 3.84c.2.56.4.68.97.51q1.36-.42 2.75-.88l-.47-1.08c.13-.71.6-1.04 1.04-1.39l2.46-1.9c.36-.29.68-.57.78-1.07l1.96-9.37zm2.13-2.6c-.45.17-.57.5-.64.84q-.33 1.44-.63 2.89l-2.7 13.3c-.06.34-.1.7-.19 1.2.66-.53 1.21-.9 1.91-.9 1.75 0 3.5-.18 5.31.07l-.35-.48a9 9 0 0 1-1.67-2.98 3.7 3.7 0 0 1 0-2.28 2.55 2.55 0 0 1 4.37-.7l.44.59q.32-.2.64-.36a2.6 2.6 0 0 1 2.84.3c.87.75 1.13 1.72.78 2.81a4.4 4.4 0 0 1-1.3 1.9 14 14 0 0 1-4.37 2.57l-.53-.45-.09.07 1.91 3.46 2.57-.4c-.14-1.54 1.05-1.86 1.98-2.42a4 4 0 0 1 1.35 1.93h1.24l.1-.18 1.63-7.98 1.66-8.3c.06-.3.07-.62.11-.98q-.43-.2-.77-.3-1.92-.43-3.83-.83-5.9-1.18-11.77-2.39m9.62 25.6c-.33 2.72.06 5.37-.1 8.03.92.14 6.59-.62 7.48-1.02.03-.31.1-.65.1-1l.03-6.32c0-.27-.01-.54-.32-.71-2.38.27-4.78.56-7.19 1.02m-6.8-7.26c-2.12 1.53-4.15 2.9-6.01 4.44.6 1.58 3.42 6.68 3.97 7.18l2.9-2.1v-5.23l1.16-.77c-.66-1.14-1.32-2.28-2.02-3.52M43.5 27.7c1.44 0 2.71.02 3.98-.01.24 0 .5-.18.7-.33l4.74-3.41c.13-.1.25-.23.46-.41h-3.63c-.46-.02-.82.13-1.18.4l-3.15 2.32c-.6.45-1.18.9-1.92 1.44m24.22 1.6.01-.2q-1.44-.75-2.87-1.56a2.7 2.7 0 0 0-1.77-.26l-3.17.44-2.73.4.46.3 2.45 1.36c.54.32 1.09.37 1.69.27q.98-.14 1.98-.26zm-10.94 1.1c-.52.54-.46.9.19 1.27.37-.57.34-.8-.2-1.28m2.73 2.6c.43-.6.37-.94-.19-1.26-.47.51-.44.75.19 1.27m-15.23-3.2c-.1.17-.23.32-.2.43q.16.6.77.78c.36-.53.29-.7-.58-1.22m14.02 4.84c.32-.71.29-.81-.29-1.25-.48.57-.41.89.3 1.25m-1.54.47c-.5.53-.44.84.2 1.25.4-.55.35-.87-.2-1.25m-6.48-.3q-.1-.67-.65-.84c-.12-.04-.29.07-.45.13.37.88.44.92 1.1.72m9.4 2.8c.16-.47.2-.9-.32-1.23q-.49.27-.31.78c.1.28.2.57.63.44" style="fill:#ccc"/><path d="m40.57 16.9.98-5.45c.49.21 2.83 2.28 4.14 3.65-.18 1.77-.57 3.55-.92 5.45-.24-.16-.45-.26-.62-.4zm-5.07-5.6.58.48.7.65-.36 1.6-1.21-1.07q0-.29.02-.46zm.55-1.2-.71-.67-.43.13-.38.17c-.2.33.06.75-.34.98-.12-.42-.2-2.34-.08-2.76.02-.11.14-.2.22-.3a5.4 5.4 0 0 1 1.72 2.45m-.78-.96-.82-1.03-.14.06.14 1.24zm17.69 2.65q.25-.1.47-.14c.33-.05.65-.03.85.29.21.32.3.68.07 1.04-.39.65-1 1.02-1.68 1.26-.14.05-.41-.07-.55-.2a3 3 0 0 1-.88-1.39q-.24-.8.32-1.2.5-.34 1.16.14zm1.2-.97-.4-1.02-.8-.21-.73.82-.12-.08q.03-.16.1-.32.53-.93 1.08-1.85c.13-.23.27-.47.66-.32q.28 1.45.37 2.93zM53.04 9.2c.3.19.3.19.76.15.04-.36.01-.7-.2-1.1zm9.95 27.52c.55.15.72.43.65.87-.04.26-.15.48-.42.5-.18.02-.4-.09-.56-.2-.22-.16-.24-.42-.12-.64.1-.2.3-.36.45-.53m4.33-3.9c-.41-.12-.68-.32-.67-.73s.27-.61.64-.67c.73.47.74.81.03 1.4m-2.12 1.16c.75.53.72.96-.06 1.4q-.53-.1-.56-.64-.02-.58.62-.76m-12.02-1.66.7.66-.5.75q-.78-.09-.83-.71c-.03-.38.23-.56.63-.7m-2.88-4c.26-.04.51-.16.68-.09.19.08.36.3.44.5.13.3-.04.63-.3.73s-.59-.04-.74-.3l-.08-.23c-.02-.14 0-.3 0-.61m4.04-1.29q-.62-.13-.69-.7c-.03-.27.01-.34.45-.69.35.07.64.2.7.61q.11.56-.46.78M48 25.9c.2-.41.53-.57 1.07-.66-.31.5-.67.61-1.07.65m14.75 1.86c.46-.22.8-.24 1.23.02-.44.19-.78.27-1.23-.02m-2.13.25c.5-.2.85-.16 1.22-.1-.32.37-.36.37-1.22.1m2.48.79h-1.16c.42-.46.79-.2 1.13-.24zm-3.3.16c.51-.2.87-.19 1.33 0-.46.28-.81.24-1.33 0m6.57.11c-.7.26-.7.26-1.2.05.5-.21.5-.21 1.2-.05m-4.07.52c-.5.24-.82.28-1.23-.02.41-.18.75-.18 1.23.02m-2.44-1.31c-.48.26-.48.26-1 .04.46-.18.46-.18 1-.04m5.26.23h-1.13c.47-.34.47-.34 1.13 0m-.92.95h-1.02c.39-.37.42-.38 1.01 0" style="fill:#ccc"/><path d="M86.12 25.95 85.64 31q-1.92.78-4.86.78-3.78 0-5.42-1.47-1.62-1.47-1.63-4.53 0-1.3.42-3.8.9-5.17 3.1-7.5 2.2-2.35 6.98-2.35 1.1 0 2.53.23 1.43.22 2.09.55l-1.68 4.6a14 14 0 0 0-3.31-.43q-1.55 0-2.21.3t-.81 1.2l-1.38 7.86q1.08.24 2.22.24 2.43 0 4.44-.72m6.36 5.37h-6l7.89-18.75h8.82l1.32 18.75h-6.03l-.12-2.97h-4.71Zm5.13-12.99-2.1 5.25h2.4v-5.25ZM105.95 31l1.68-4.95q2.52.7 4.62.7t3.39-.19l.24-1.5-2.49-.24q-2.86-.26-4.03-1.29a3.6 3.6 0 0 1-1.19-2.88q0-.81.18-1.8.7-3.84 2.5-5.28 1.83-1.44 5.63-1.44 3.81 0 6.72.75l-1.56 4.8q-2.61-.45-4.2-.45t-2.7.15l-.24 1.47 2.01.21q3.06.32 4.35 1.46a3.8 3.8 0 0 1 1.29 3.01q0 1.92-.84 3.96-.42 1.05-.92 1.76-.5.7-1.25 1.2-.77.5-1.4.75-.63.26-1.59.37-1.41.21-3.45.21-3.72 0-6.75-.78m17.55.33 3.3-18.75h5.7l-3.3 18.75Zm19.7 0-3.05-6.66a1 1 0 0 1-.12-.58q0-.38.06-.86h-.24l-1.41 8.1h-5.7l3.3-18.75h5.37l3.06 6.66q.09.21.09.59 0 .37-.06.85h.24l1.44-8.1h5.7l-3.3 18.75Zm16.66-12.48-1.38 7.8h2.37q1.17 0 1.74-.28.57-.3.75-1.3l1.38-7.8h-2.4q-1.14 0-1.71.28t-.75 1.3m3.45-6.72q3.81 0 5.43 1.49 1.62 1.48 1.62 4.57t-.98 6.47-3.09 5.25q-2.1 1.87-6.18 1.87-4.05 0-5.68-1.48-1.62-1.5-1.62-4.58 0-1.47.42-3.88t1.1-4.17a10 10 0 0 1 1.87-3.05q2.25-2.49 7.1-2.49" style="fill:#fff;white-space:pre"/></svg>
